X:332
T:Shetland Fiddler
Z: id:dc-reel-309
M:C
L:1/8
K:D Major
Ac|d2fd Adfe|defg afdf|e2ge Bded|cdef gece|!
d2fd Adfe|defg afdg|fafd fafd|Bgec d2:|!
cd|eAfA gAaA|fAaf gfed|AABA cAdA|efed cABc|!
dded fdgd|fdaf gfed|fafd fafd|Bgec d2:|!

